X: 681
T: The sailor's cravat
C: anon.
O: Ireland
B: Francis O'Neill: "The Dance Music of Ireland" (1907) no. 681
R: Reel
Z: Transcribed by Frank Nordberg - http://www.musicaviva.com
F: http://www.musicaviva.com/abc/tunes/ireland/oneill-1001/oneill-1001-068
1.abc
m: Mn = (3n/o/n/
M: C|
L: 1/8
K: D
d2(fe) dcBd|ABFB ADFA|d2(fe) dcAd|AFDF (MGE)E z|d2(fe) dcBd|ABFB ADFA|d2(
fe) dcBd|AFEG FDD2||
AddA BAFA|defd (Be)e z|AddA BcdB|AFGE FDD2|AddA BAFA|defd (Be)e z|AddA Bg
fe|dBAG FDD2|]
W:
W:
W: From Musica Viva - http://www.musicaviva.com
W: the Internet center for free sheet music downloads.


